X:135
T:Green Garters
Z: id:dc-reel-374
M:C
L:1/8
K:D Major
defd Adfd|defa gece|defd Adfd|edcd efge:|!
agfg afdf|a2fd efge|agfg afdf|edcd efge|!
agfg afdf|a2fd efge|afge fdec|ABcd efge|]!
ddad bdad|ddad eAce|ddad bdad|edcd efge|!
ddad bdad|ddad eAce|afge fdec|ABcd efge|]!